assets/svg/icon_channel_private.svg

<svg width="24" height="24" viewBox="0 0 24 24" fill="none" xmlns="http://www.w3.org/2000/svg">
<path fill-rule="evenodd" clip-rule="evenodd" d="M10.2263 4.07947C10.2338 4.40691 9.97446 4.67841 9.64703 4.6859C7.41591 4.7369 6.36508 4.96196 5.67147 5.65558C5.22046 6.10658 4.9617 6.71675 4.82564 7.72866C4.6873 8.75763 4.68605 10.1097 4.68605 11.9921C4.68605 13.8743 4.6873 15.2264 4.82564 16.2555C4.9617 17.2674 5.22046 17.8775 5.67147 18.3285C6.12248 18.7795 6.73264 19.0383 7.74455 19.1744C8.77353 19.3127 10.1256 19.314 12.008 19.314C13.8902 19.314 15.2423 19.3127 16.2713 19.1744C17.2833 19.0383 17.8934 18.7795 18.3444 18.3285C19.0381 17.6349 19.2631 16.5841 19.3141 14.353C19.3216 14.0255 19.5931 13.7662 19.9205 13.7737C20.2479 13.7811 20.5074 14.0527 20.4998 14.3801C20.4499 16.5675 20.2528 18.0975 19.1831 19.1672C18.4749 19.8753 17.5728 20.1961 16.4294 20.3498C15.3122 20.5 13.8804 20.5 12.0533 20.5H11.9626C10.1355 20.5 8.70366 20.5 7.58652 20.3498C6.44309 20.1961 5.54091 19.8753 4.83281 19.1672C4.1247 18.4591 3.8039 17.5569 3.65018 16.4135C3.49998 15.2963 3.49999 13.8645 3.5 12.0374V11.9467C3.49999 10.1196 3.49998 8.68777 3.65018 7.57062C3.8039 6.42719 4.1247 5.52502 4.83281 4.81691C5.90253 3.74719 7.43251 3.55017 9.61991 3.50016C9.94735 3.49267 10.2189 3.75203 10.2263 4.07947ZM16.1595 4.68605C14.4151 4.68605 13.0051 6.09377 13.0051 7.82518C13.0051 8.21392 13.0942 8.55489 13.1857 8.80104C13.2311 8.92311 13.2759 9.01867 13.3079 9.0812C13.3238 9.11237 13.3364 9.13503 13.3439 9.14834L13.3514 9.16111C13.4979 9.39453 13.4633 9.69827 13.268 9.89274L8.73446 14.4078C8.72277 14.4194 8.70029 14.4461 8.67946 14.4834C8.65903 14.52 8.64678 14.5551 8.64197 14.5845C8.63759 14.6113 8.63916 14.6333 8.64619 14.6552C8.65308 14.6767 8.67242 14.7207 8.73446 14.7825L9.23589 15.2819C9.25089 15.293 9.2742 15.3083 9.30372 15.3227C9.3423 15.3416 9.37968 15.3534 9.41145 15.3582C9.44156 15.3626 9.46171 15.3601 9.47599 15.3558C9.48805 15.3522 9.5145 15.342 9.55334 15.3033L10.1634 14.6957C10.3948 14.4652 10.769 14.4652 11.0003 14.6957C11.0913 14.7862 11.167 14.8239 11.221 14.8403C11.2756 14.857 11.3296 14.8588 11.3854 14.8481C11.509 14.8245 11.6213 14.7427 11.673 14.6773C11.7446 14.574 11.7423 14.4842 11.7081 14.3819C11.689 14.3252 11.6617 14.274 11.6378 14.2364C11.6263 14.2183 11.6169 14.2054 11.6118 14.1988C11.6105 14.197 11.6089 14.1949 11.6089 14.1949C11.4115 13.9593 11.4266 13.6113 11.645 13.3938L11.8192 13.2202C12.0507 12.9898 12.4248 12.9898 12.6562 13.2202C12.9598 13.5226 13.1611 13.5188 13.258 13.5004C13.3949 13.4744 13.5225 13.376 13.5901 13.2889C13.6791 13.1615 13.6795 13.0476 13.6545 12.9429C13.6408 12.8855 13.6194 12.8354 13.6014 12.8001C13.5926 12.783 13.5856 12.7712 13.5821 12.7656L13.5813 12.7644L13.5588 12.733L13.5379 12.6914C13.5304 12.6764 13.5184 12.6583 13.48 12.616C13.4788 12.6145 13.4764 12.6121 13.4731 12.6086C13.4438 12.5778 13.3409 12.4695 13.2777 12.3561C13.1695 12.1623 13.1396 11.9263 13.2334 11.6853C13.3057 11.4996 13.4391 11.3466 13.5623 11.2239L14.0851 10.7032C14.3019 10.4874 14.6471 10.4717 14.8824 10.667C14.977 10.7456 15.1789 10.8302 15.4671 10.8899C15.7377 10.9458 16.0065 10.9643 16.1595 10.9643C17.904 10.9643 19.314 9.55659 19.314 7.82518C19.314 6.09377 17.904 4.68605 16.1595 4.68605ZM12.9082 14.6696C12.8835 14.8951 12.8033 15.1366 12.6325 15.3747L12.6284 15.3803L12.6243 15.3858C12.4127 15.6669 12.0482 15.9287 11.6085 16.0129C11.2977 16.0725 10.9657 16.0395 10.6489 15.886L10.3903 16.1437C10.0326 16.4999 9.60551 16.5857 9.23802 16.5314C8.90005 16.4815 8.62135 16.3174 8.45386 16.1745C8.44232 16.1646 8.43116 16.1543 8.42042 16.1437L7.89751 15.6229C7.51645 15.2434 7.40536 14.7976 7.47145 14.3931C7.53148 14.0259 7.72865 13.7356 7.89751 13.5674L12.1287 9.35348C12.1107 9.30999 12.0924 9.2636 12.0741 9.21446C11.9477 8.87475 11.819 8.39118 11.819 7.82518C11.819 5.43417 13.7646 3.5 16.1595 3.5C18.5544 3.5 20.5 5.43417 20.5 7.82518C20.5 10.2162 18.5544 12.1504 16.1595 12.1504C15.9349 12.1504 15.5849 12.1254 15.2266 12.0512C15.0363 12.0119 14.816 11.9532 14.6021 11.8623L14.4872 11.9767C14.5179 12.0195 14.5492 12.0682 14.5789 12.1229C14.5822 12.128 14.5857 12.1335 14.5894 12.1395C14.608 12.1695 14.6317 12.2099 14.657 12.2593C14.707 12.3569 14.7673 12.4967 14.8081 12.6671C14.8916 13.0164 14.8925 13.5083 14.5498 13.986L14.5457 13.9916L14.5416 13.9971C14.3466 14.256 13.9798 14.5706 13.479 14.6657C13.2922 14.7011 13.1007 14.7035 12.9082 14.6696ZM16.1595 7.11629C15.7628 7.11629 15.4453 7.43596 15.4453 7.82518C15.4453 8.2144 15.7628 8.53407 16.1595 8.53407C16.5562 8.53407 16.8738 8.2144 16.8738 7.82518C16.8738 7.43596 16.5562 7.11629 16.1595 7.11629ZM14.2593 7.82518C14.2593 6.77635 15.1123 5.93024 16.1595 5.93024C17.2067 5.93024 18.0598 6.77635 18.0598 7.82518C18.0598 8.87401 17.2067 9.72012 16.1595 9.72012C15.1123 9.72012 14.2593 8.87401 14.2593 7.82518Z" fill="#0166FF"/>
</svg>

<svg xmlns="http://www.w3.org/2000/svg" width="24" height="24" fill="none"><path fill="#0166FF" fill-rule="evenodd" d="M10.226 4.08a.593.593 0 0 1-.579.606c-2.231.05-3.282.276-3.976.97-.45.45-.71 1.06-.845 2.073-.139 1.029-.14 2.38-.14 4.263 0 1.882.001 3.234.14 4.264.136 1.011.394 1.622.845 2.072.451.451 1.062.71 2.074.846 1.029.139 2.38.14 4.263.14 1.882 0 3.234-.001 4.263-.14 1.012-.136 1.622-.395 2.073-.846.694-.693.92-1.744.97-3.975a.593.593 0 1 1 1.186.027c-.05 2.187-.247 3.717-1.317 4.787-.708.708-1.61 1.03-2.754 1.183-1.117.15-2.549.15-4.376.15h-.09c-1.827 0-3.26 0-4.376-.15-1.144-.154-2.046-.475-2.754-1.183s-1.03-1.61-1.183-2.754c-.15-1.117-.15-2.549-.15-4.376v-.09c0-1.827 0-3.26.15-4.376.154-1.144.475-2.046 1.183-2.754 1.07-1.07 2.6-1.267 4.787-1.317a.593.593 0 0 1 .606.58m5.934.606a3.147 3.147 0 0 0-3.155 3.14 2.8 2.8 0 0 0 .339 1.322l.007.013a.59.59 0 0 1-.083.732l-4.534 4.515a.36.36 0 0 0-.092.177.14.14 0 0 0 .004.07.3.3 0 0 0 .088.128l.502.499a.44.44 0 0 0 .175.076q.044.006.065-.002a.2.2 0 0 0 .077-.053l.61-.607a.593.593 0 0 1 .837 0c.091.09.167.128.221.144a.33.33 0 0 0 .164.008.52.52 0 0 0 .288-.17c.072-.104.07-.194.035-.296a.7.7 0 0 0-.096-.183l-.003-.004a.593.593 0 0 1 .036-.801l.174-.174a.593.593 0 0 1 .837 0c.304.303.505.299.602.28a.6.6 0 0 0 .332-.211.4.4 0 0 0 .065-.346.7.7 0 0 0-.073-.177v-.002l-.023-.031-.021-.042a.4.4 0 0 0-.058-.075l-.007-.007c-.03-.031-.132-.14-.195-.253a.77.77 0 0 1-.045-.67c.073-.186.206-.34.33-.462l.522-.52a.593.593 0 0 1 .797-.037c.095.079.297.163.585.223.27.056.54.074.693.074a3.147 3.147 0 0 0 3.154-3.139c0-1.731-1.41-3.139-3.154-3.139m-3.252 9.984a1.5 1.5 0 0 1-.275.705l-.005.005-.004.006a1.7 1.7 0 0 1-1.016.627c-.31.06-.642.026-.96-.127l-.258.258a1.32 1.32 0 0 1-1.152.387 1.6 1.6 0 0 1-.818-.387l-.522-.521c-.382-.38-.493-.825-.427-1.23a1.55 1.55 0 0 1 .427-.826l4.23-4.214-.054-.139a4 4 0 0 1-.255-1.389 4.333 4.333 0 0 1 4.34-4.325A4.333 4.333 0 0 1 20.5 7.825a4.333 4.333 0 0 1-4.34 4.325c-.225 0-.575-.025-.933-.099-.19-.04-.411-.098-.625-.189l-.115.115a1.4 1.4 0 0 1 .102.162q.03.045.068.12c.05.098.11.238.151.408.084.35.085.841-.258 1.319l-.004.006-.004.005a1.78 1.78 0 0 1-1.063.669 1.6 1.6 0 0 1-.57.004m3.252-7.554a.71.71 0 0 0-.715.71c0 .388.318.708.715.708s.714-.32.714-.709a.71.71 0 0 0-.714-.709m-1.9.71c0-1.05.852-1.896 1.9-1.896 1.047 0 1.9.846 1.9 1.895a1.9 1.9 0 0 1-1.9 1.895c-1.048 0-1.9-.846-1.9-1.895" clip-rule="evenodd"/></svg>
